packages/tokens/icons/settings/size16Px.svg

<svg viewBox="0 0 16 16" fill="none" xmlns="http://www.w3.org/2000/svg" width="1em" height="1em"><path d="M14.1813 6.66324H13.5297C13.396 6.07841 13.1621 5.5437 12.8614 5.04242L13.3125 4.59126C13.4461 4.45758 13.4461 4.25707 13.3125 4.12339L11.8923 2.70308C11.7586 2.56941 11.5581 2.56941 11.4245 2.70308L10.9734 3.15424C10.4721 2.85347 9.93748 2.61954 9.3527 2.48586V1.83419C9.3527 1.65039 9.20233 1.5 9.01855 1.5L7.0136 1.5C6.82981 1.5 6.67944 1.65039 6.67944 1.83419V2.48586C6.09467 2.61954 5.56001 2.85347 5.05878 3.15424L4.59096 2.70308C4.45729 2.56941 4.2568 2.56941 4.12314 2.70308L2.70297 4.12339C2.5693 4.25707 2.5693 4.45758 2.70297 4.59126L3.15408 5.04242C2.85334 5.5437 2.61943 6.07841 2.48576 6.66324H1.83416C1.65037 6.66324 1.5 6.81362 1.5 6.99743L1.5 9.00257C1.5 9.18638 1.65037 9.33676 1.83416 9.33676H2.48576C2.61943 9.92159 2.85334 10.4563 3.15408 10.9576L2.70297 11.4087C2.5693 11.5424 2.5693 11.7429 2.70297 11.8766L4.12314 13.2969C4.2568 13.4306 4.45729 13.4306 4.59096 13.2969L5.04207 12.8458C5.54331 13.1465 6.07796 13.3805 6.66273 13.5141V14.1658C6.66273 14.3496 6.81311 14.5 6.99689 14.5L9.00184 14.5C9.18562 14.5 9.33599 14.3496 9.33599 14.1658V13.5141C9.92077 13.3805 10.4554 13.1465 10.9567 12.8458L11.4078 13.2969C11.5414 13.4306 11.7419 13.4306 11.8756 13.2969L13.2958 11.8766C13.4294 11.7429 13.4294 11.5424 13.2958 11.4087L12.8446 10.9576C13.1454 10.4563 13.3793 9.92159 13.513 9.33676H14.1646C14.3484 9.33676 14.4987 9.18638 14.4987 9.00257L14.4987 6.99743C14.5154 6.81362 14.3651 6.66324 14.1813 6.66324Z" stroke="currentColor" stroke-miterlimit="10"/><circle cx="8" cy="8" r="2.5" stroke="currentColor"/></svg>

<svg xmlns="http://www.w3.org/2000/svg" fill="none" viewBox="0 0 16 16" width="1em" height="1em"><path stroke="currentColor" stroke-miterlimit="10" d="M14.181 6.663h-.651a5.536 5.536 0 0 0-.669-1.62l.451-.452a.323.323 0 0 0 0-.468l-1.42-1.42a.323.323 0 0 0-.467 0l-.452.451a5.534 5.534 0 0 0-1.62-.668v-.652a.335.335 0 0 0-.334-.334H7.014a.335.335 0 0 0-.335.334v.652a5.533 5.533 0 0 0-1.62.668l-.468-.45a.323.323 0 0 0-.468 0l-1.42 1.42a.323.323 0 0 0 0 .467l.451.451a5.534 5.534 0 0 0-.668 1.621h-.652a.335.335 0 0 0-.334.334v2.006c0 .183.15.334.334.334h.652c.133.585.367 1.12.668 1.62l-.451.452a.323.323 0 0 0 0 .468l1.42 1.42a.323.323 0 0 0 .468 0l.451-.451c.501.3 1.036.534 1.62.668v.652c0 .184.151.334.335.334h2.005c.184 0 .334-.15.334-.334v-.652a5.533 5.533 0 0 0 1.62-.668l.452.45a.323.323 0 0 0 .468 0l1.42-1.42a.323.323 0 0 0 0-.467l-.451-.451a5.57 5.57 0 0 0 .668-1.621h.652c.183 0 .334-.15.334-.334V6.997a.311.311 0 0 0-.318-.334Z"/><circle cx="8" cy="8" r="2.5" stroke="currentColor"/></svg>
